X: 17491
T: Hills Of Coore, The
R: hornpipe
M: 4/4
K: Adorian
EAAB AGE2|cdef ged2|egaf gedB|c2B2 AGED|
EAAB AGED|cdef gedg|egaf gedB|DEGB A4:|
a2ab agef|g2ga ged2|egaf gedB|(3cBA BG AGED|
EAAB AGE2|cdef ged2|(3efg af gedB|DEGB A4:|

